X: 37255
T: Skaldister View, The
R: waltz
M: 3/4
K: Amixolydian
AB|:c2 ca fa|f2e2 AB|c2 af ec|B2Ba ec|
A2 AB cA|d2f2 fa|e2 ce dB|A4 AB:|
|:G2 GA BG|A2c2 ce|d2 de fd|e4 ef|
gf ea fd|(3fgf e2 cd|e2 ce dB|A4 AB:|

